X:191
T:The 4-
R:reel
C:Bruce Osborne - Mar. 2002
Z:abc by bosborne@kos.net
M:2/4
L:1/8
K:Amaj
C/D/|EE/c/ B/A/F/A/|E/F/E/C/ EC/D/|E/A/c/f/ e/c/A/c/|B/A/B/c/ BC/D/|\
EE/c/ B/A/F/A/|E/F/E/C/ EC/D/|E/A/c/f/ e/c/A/c/|B/A/G/B/ A:|
|:c/d/|e/c/A/c/ e/c/A/c/|d/c/d/e/ f/a/g/f/|e/c/A/c/ e/c/A/c/|B/A/G/A/ Bc/d/|\
e/c/A/c/ e/c/A/c/|d/c/d/e/ f/a/g/f/|e/c/A/c/ B/A/G/B/|A/c/B/G/ A:|
